X: 2
T: Missa Et ecce terre motus / Gloria
N: Derived from Bru1008b-Missa_Et_ecce_terre_motus-Gloria.krn
C: Antoine Brumel
%%abc-version 2.0
%%abcx-abcm2ps-target-version 5.9.1 (29 Sep 2008)
%%abc-creator hum2abc beta
%%abcx-conversion-date 2019/02/16 20:23:55
%%abc-edited-by Jesse Rodin
%%abc-edited-by Legge/Rodin
%%abcx-initial-encoding-date 2014/08/07/
%%humdrum-veritas 1551671906
%%humdrum-veritas-data 3050056994
%%linebreak <none>
%%barnumbers 0
L: 1/4
M: 3/1
Q: 1/2=120
V: 1 clef=treble
V: 2 clef=treble
V: 3 clef=treble
V: 4 clef=treble-8
V: 5 clef=treble-8
V: 6 clef=treble-8
V: 7 clef=treble-8
V: 8 clef=treble-8
V: 9 clef=treble-8
V: 10 clef=bass
V: 11 clef=bass
V: 12 clef=bass
K: C
[V:1] z12 | 
[V:2] z12 | 
[V:3] z12 | 
[V:4] d4d2d4d2 | 
[V:5] z12 | 
[V:6] z12 | 
[V:7] z12 | 
[V:8] z12 | 
[V:9] z12 | 
[V:10] z12 | 
[V:11] z12 | 
[V:12] z12 | 
[V:1] z12 | 
[V:2] z12 | 
[V:3] d4d2d4d2 | 
[V:4] B3cded3cBA | 
[V:5] z12 | 
[V:6] z12 | 
[V:7] z12 | 
[V:8] z12 | 
[V:9] z12 | 
[V:10] z12 | 
[V:11] z12 | 
[V:12] z12 | 
[V:1] d4d2d4d2 | 
[V:2] z12 | 
[V:3] B3A/G/^F2G4F2 | 
[V:4] GABcd2G2d4 | 
[V:5] z12 | 
[V:6] z12 | 
[V:7] z12 | 
[V:8] z12 | 
[V:9] z12 | 
[V:10] z12 | 
[V:11] z12 | 
[V:12] z12 | 
[V:1] B2d3cc4B2 | 
[V:2] G4G2G4G2 | 
[V:3] G4E2C2D4 | 
[V:4] G4c4G4 | 
[V:5] z12 | 
[V:6] z12 | 
[V:7] z12 | 
[V:8] z12 | 
[V:9] z12 | 
[V:10] z12 | 
[V:11] z12 | 
[V:12] z12 | 
[V:1] c2c2c2c2B4 | 
[V:2] E2G2G2G2G4 | 
[V:3] C2E2E2E2D4 | 
[V:4] z2c2c2c2G4 | 
[V:5] z12 | 
[V:6] z12 | 
[V:7] z12 | 
[V:8] z12 | 
[V:9] z12 | 
[V:10] z12 | 
[V:11] z12 | 
[V:12] z12 | 
[V:1] z2B2B2B2B2B2 | 
[V:2] z2D2D2D2D2D2 | 
[V:3] z2G2G2G2G2G2 | 
[V:4] z2G2G2G2G2G2 | 
[V:5] z12 | 
[V:6] z12 | 
[V:7] z12 | 
[V:8] z12 | 
[V:9] z12 | 
[V:10] z12 | 
[V:11] z12 | 
[V:12] z12 | 
[V:1] c3Bcde4dc | 
[V:2] E3DEFG2C2G2- | 
[V:3] G8E4 | 
[V:4] c12 | 
[V:5] z12 | 
[V:6] z12 | 
[V:7] z12 | 
[V:8] z12 | 
[V:9] z12 | 
[V:10] z12 | 
[V:11] z12 | 
[V:12] z12 | 
[V:1] B4d4c4 | 
[V:2] G2FED2G4F2 | 
[V:3] D2G3FD2E2C2 | 
[V:4] G4B4A4 | 
[V:5] z12 | 
[V:6] z12 | 
[V:7] z12 | 
[V:8] z12 | 
[V:9] z12 | 
[V:10] z12 | 
[V:11] z12 | 
[V:12] z12 | 
[V:1] B2A3GG4^F2 | 
[V:2] G2c4B2A4 | 
[V:3] D2F3ED2z2D2 | 
[V:4] G2F4G2d4 | 
[V:5] z12 | 
[V:6] z12 | 
[V:7] z12 | 
[V:8] z12 | 
[V:9] z12 | 
[V:10] z12 | 
[V:11] z12 | 
[V:12] z12 | 
[V:1] G4z4B4 | 
[V:2] B4z4d4 | 
[V:3] D4z4G4 | 
[V:4] G4z4d4 | 
[V:5] G4G4G4 | 
[V:6] B4B4G4 | 
[V:7] z12 | 
[V:8] z12 | 
[V:9] D4D4D4 | 
[V:10] G,,4G,,4G,,4 | 
[V:11] z12 | 
[V:12] z12 | 
[V:1] A6A2d4 | 
[V:2] d6d2A4 | 
[V:3] F6F2F4 | 
[V:4] d6d2d4 | 
[V:5] D4z8 | 
[V:6] A12 | 
[V:7] z12 | 
[V:8] z12 | 
[V:9] F4z2F2FGAB | 
[V:10] D,12 | 
[V:11] z12 | 
[V:12] z12 | 
[V:1] c4z2e2e2e2 | 
[V:2] A4A2c4c2 | 
[V:3] E4E2A4A2 | 
[V:4] e2c4c2c2c2 | 
[V:5] z2E2E2E2C4 | 
[V:6] z4E4E2E2 | 
[V:7] z12 | 
[V:8] z12 | 
[V:9] c3BAGA4GF | 
[V:10] A,,4A,,2A,,2A,,2A,,2 | 
[V:11] z12 | 
[V:12] z12 | 
[V:1] e3dcBc3BGA | 
[V:2] c4G8 | 
[V:3] G2c3de4dc | 
[V:4] G4G2c3def | 
[V:5] c3de8 | 
[V:6] E2E2G8 | 
[V:7] z12 | 
[V:8] z12 | 
[V:9] E2C2z2c2c2c2 | 
[V:10] C,12 | 
[V:11] z12 | 
[V:12] z12 | 
[V:1] B2d3cBAB2AG | 
[V:2] G3ABcd4G2 | 
[V:3] d4G4d4- | 
[V:4] d2B2G2d3cde | 
[V:5] z2d4G4D2 | 
[V:6] D12 | 
[V:7] z12 | 
[V:8] z12 | 
[V:9] B2G2G3FG2=B2 | 
[V:10] G,,12 | 
[V:11] z12 | 
[V:12] z12 | 
[V:1] F2A3GG4^F2 | 
[V:2] A2d4cBA4 | 
[V:3] d2d2d2d2d4 | 
[V:4] d2f3edcd4 | 
[V:5] F4D3EF4 | 
[V:6] F3GD4z2D2- | 
[V:7] z12 | 
[V:8] z12 | 
[V:9] A12 | 
[V:10] D,12 | 
[V:11] z12 | 
[V:12] z12 | 
[V:1] G4z8 | 
[V:2] B4z8 | 
[V:3] z2G2G2A2G2A2 | 
[V:4] B4z8 | 
[V:5] D2G4F2G2F2 | 
[V:6] D2F2D2F2D4 | 
[V:7] d12- | 
[V:8] z12 | 
[V:9] G2B4A2B2A2 | 
[V:10] G,,4z8 | 
[V:11] G,,6D,2G,,2D,2 | 
[V:12] z12 | 
[V:1] G6F2G2F2 | 
[V:2] B6A2B2A2 | 
[V:3] G4d8- | 
[V:4] z2G4A2G2A2 | 
[V:5] G2D2D2F2D2F2 | 
[V:6] z8z2D2 | 
[V:7] d12 | 
[V:8] z12 | 
[V:9] B3AG2D2G2D2 | 
[V:10] G,,6D,2G,,2D,2 | 
[V:11] G,,4z8 | 
[V:12] z12 | 
[V:1] G4d8 | 
[V:2] B4A2G4^F2 | 
[V:3] d4z2G2A4 | 
[V:4] G2g2f2d3ef2 | 
[V:5] D2d3cB2A4 | 
[V:6] D2D2F2D2G3A | 
[V:7] d12 | 
[V:8] z12 | 
[V:9] G4A2B2d4 | 
[V:10] G,,4z2G,,2D,2D,2 | 
[V:11] D,3E,F,2G,2D,4 | 
[V:12] z12 | 
[V:1] z2d3cBAB2G2 | 
[V:2] G4z2d3cBA | 
[V:3] B4B4z2d2- | 
[V:4] d3cBAB2G2D2 | 
[V:5] G4z4d3c | 
[V:6] Bcd2D2d2D2G2 | 
[V:7] B12- | 
[V:8] G12 | 
[V:9] z4d3cBAB2 | 
[V:10] G,,2G,,2G,,8 | 
[V:11] D,4D,4D,2D,2 | 
[V:12] z12 | 
[V:1] D2d3cBAB2G2 | 
[V:2] B2G2D2d3cBA | 
[V:3] dcBAB2G2D2d2- | 
[V:4] d3cBAB2G2D2 | 
[V:5] BAB2G2D2d3c | 
[V:6] z2B,2B,3CD2G2- | 
[V:7] B12 | 
[V:8] G12- | 
[V:9] G2D2d3cBAB2 | 
[V:10] D,6D,2D,4 | 
[V:11] G,,4G,,2G,,2G,,4 | 
[V:12] z12 | 
[V:1] D2d3cBAB2G2 | 
[V:2] B2G2D2d3cBA | 
[V:3] dcBAB2G2d4 | 
[V:4] d3cBAB2G2z2 | 
[V:5] BAB2G2g4g2 | 
[V:6] G2FED2G3FED | 
[V:7] d12 | 
[V:8] G12 | 
[V:9] G2D2d3cBAB2 | 
[V:10] G,,2G,,2G,,2G,,2G,,4 | 
[V:11] D,2D,2D,2D,2D,4 | 
[V:12] z12 | 
[V:1] z4G3FEDE2 | 
[V:2] G3FEDE2C2z2 | 
[V:3] c4c2c2c4 | 
[V:4] z2c2e3fg2c2 | 
[V:5] G4c4c2e2- | 
[V:6] E2C2z2G3FED | 
[V:7] e12- | 
[V:8] E12- | 
[V:9] c4z4G3F | 
[V:10] z2G,3F,E,D,E,2C,2 | 
[V:11] z4z2G,3F,E,D, | 
[V:12] C,12- | 
[V:1] C2z2G3FEDE2 | 
[V:2] G3FEDE2C2z2 | 
[V:3] c4c2c2c4 | 
[V:4] z2c2e3fg2c2 | 
[V:5] efg2c2z2c2e2- | 
[V:6] E2C2z2G3FED | 
[V:7] e12- | 
[V:8] E12 | 
[V:9] EDE2C2z2G3F | 
[V:10] z2G,3F,E,D,E,2C,2 | 
[V:11] E,2C,2z2G,3F,E,D, | 
[V:12] C,12 | 
[V:1] C2z2G3FEDE2 | 
[V:2] G3FEDE2C4 | 
[V:3] c4G8 | 
[V:4] z2c2e3fg2z2 | 
[V:5] efg2c2z2c4 | 
[V:6] E2C2z4z2A2 | 
[V:7] e12- | 
[V:8] G12 | 
[V:9] EDE2C2G2C4 | 
[V:10] z2G,3F,E,D,E,2C,2 | 
[V:11] E,2C,2z2G,3F,E,D, | 
[V:12] C,12 | 
[V:1] C4z4z2c2- | 
[V:2] z2A2A4z4 | 
[V:3] z2c3cccA2A2 | 
[V:4] c3cccA2A2A2 | 
[V:5] c4A2c3de2 | 
[V:6] c3de2A2c3d | 
[V:7] e12- | 
[V:8] A12- | 
[V:9] A2c3de2A2c2- | 
[V:10] z2E,3D,C,B,,C,2A,,2 | 
[V:11] E,2C,2z2E,3D,C,B,, | 
[V:12] A,,12- | 
[V:1] ccccA2A2A2A2 | 
[V:2] z4z2c3ccc | 
[V:3] A2A2E4z2e2 | 
[V:4] A2E2A2c3de2- | 
[V:5] A2c3de2c4 | 
[V:6] e2A2c3de4 | 
[V:7] e12- | 
[V:8] A12 | 
[V:9] cde2z4A2c2- | 
[V:10] z2E,3D,C,B,,C,2A,,2 | 
[V:11] C,2A,,2z2E,3D,C,B,, | 
[V:12] A,,12 | 
[V:1] E4z2c2c2c2 | 
[V:2] c2G2G2G2E2G2 | 
[V:3] e2c2c2c2G2G2 | 
[V:4] ecefg2c2c4 | 
[V:5] G2G2c2c2c4 | 
[V:6] z2c2e3fg2G2 | 
[V:7] e12 | 
[V:8] G12- | 
[V:9] ccc2G2c3B/A/GA | 
[V:10] z2E,3D,C,B,,C,4 | 
[V:11] E,2G,3F,E,D,E,2C,2 | 
[V:12] C,12 | 
[V:1] B3cdcd3cBA | 
[V:2] G2G2D2G3ABc | 
[V:3] d3cBAB2G3A | 
[V:4] z2g2g2g2d2g2 | 
[V:5] z4G2B3cd2 | 
[V:6] B3cd4z2d2 | 
[V:7] d12 | 
[V:8] G12 | 
[V:9] B2B2B2B2B2B2 | 
[V:10] G,,4z2G,2G,2G,2 | 
[V:11] z4G,,4G,,2G,,2 | 
[V:12] D,12- | 
[V:1] GABcd2c4B2 | 
[V:2] d4B2c2d4 | 
[V:3] Bcd2G2G3AB2 | 
[V:4] g2g2g8 | 
[V:5] G3AB2G2B4 | 
[V:6] d2G2G4z4 | 
[V:7] d12 | 
[V:8] G12 | 
[V:9] B4G4d4 | 
[V:10] D,2G,2G,2G,2D,4 | 
[V:11] G,,2G,,2G,,2G,,2G,,4 | 
[V:12] D,12 | 
[V:1] c8z2c2- | 
[V:2] e8z2e2- | 
[V:3] G8z2G2- | 
[V:4] z4z2e4e2 | 
[V:5] z8z2G2- | 
[V:6] z2c4c2c2c2 | 
[V:7] z12 | 
[V:8] z12 | 
[V:9] z2G4c2G2c2 | 
[V:10] z4z2G,4G,2 | 
[V:11] z2E,4E,2C,2C,2 | 
[V:12] C,12 | 
[V:1] c2c2c2c2c4 | 
[V:2] e2e2e2e2e4 | 
[V:3] G2G2G2G2G4 | 
[V:4] e2e2e8 | 
[V:5] G2c2G2c2G4 | 
[V:6] c12 | 
[V:7] z12 | 
[V:8] z12 | 
[V:9] G4z2E4E2 | 
[V:10] G,2G,2G,4z4 | 
[V:11] E,4z2C,4C,2 | 
[V:12] C,12 | 
[V:1] z12 | 
[V:2] z12 | 
[V:3] z12 | 
[V:4] z12 | 
[V:5] z2G4G2G2G2 | 
[V:6] z2c4BAB4 | 
[V:7] z12 | 
[V:8] z12 | 
[V:9] E2E2D8 | 
[V:10] z12 | 
[V:11] C,2C,2G,,8 | 
[V:12] z12 | 
[V:1] z12 | 
[V:2] z12 | 
[V:3] z12 | 
[V:4] z12 | 
[V:5] G8E4 | 
[V:6] c4z2c3Acd | 
[V:7] z12 | 
[V:8] z12 | 
[V:9] E4EDEFG4 | 
[V:10] z12 | 
[V:11] C,8C,4 | 
[V:12] z12 | 
[V:1] z12 | 
[V:2] z12 | 
[V:3] z12 | 
[V:4] z12 | 
[V:5] F4E2D4C2 | 
[V:6] B2A3GG4^F2 | 
[V:7] z12 | 
[V:8] z12 | 
[V:9] z2D2G4A4 | 
[V:10] z12 | 
[V:11] D,4C,2B,,2A,,4 | 
[V:12] z12 | 
[V:1] B4B2B4B2 | 
[V:2] d4d2d4d2 | 
[V:3] G4G2G4G2 | 
[V:4] G4G2G4G2 | 
[V:5] D4z8 | 
[V:6] G4D2D2D2D2 | 
[V:7] z12 | 
[V:8] z12 | 
[V:9] B3cd4G2d2- | 
[V:10] G,,4G,,2G,,4G,,2 | 
[V:11] G,,4z8 | 
[V:12] z12 | 
[V:1] A8d3c | 
[V:2] d4d3cB2A2 | 
[V:3] F8z2F2 | 
[V:4] A8z2A2 | 
[V:5] z12 | 
[V:6] F4z2F4D2 | 
[V:7] z12 | 
[V:8] z12 | 
[V:9] d2cBA2d4d2 | 
[V:10] D,8D,4 | 
[V:11] z12 | 
[V:12] z12 | 
[V:1] B2A3GG4^F2 | 
[V:2] G2F2G2B2A4 | 
[V:3] G2A2B3cd4 | 
[V:4] d3cB2G2A4 | 
[V:5] z12 | 
[V:6] D12 | 
[V:7] z12 | 
[V:8] z12 | 
[V:9] z2d3Bdefedc | 
[V:10] G,,2D,2G,,4D,4 | 
[V:11] z12 | 
[V:12] z12 | 
[V:1] G6FED4 | 
[V:2] B3ABcd2G2d2 | 
[V:3] d4d4d4 | 
[V:4] G4g4g4 | 
[V:5] d4d2B3cd2 | 
[V:6] D4G3AB4 | 
[V:7] B6G2G4 | 
[V:8] G12 | 
[V:9] B2d2G2d3cB2 | 
[V:10] G,,4B,,3C,D,3E, | 
[V:11] G,,12 | 
[V:12] D,8B,,4 | 
[V:1] z2A4F2F4 | 
[V:2] z2c2A3GA4 | 
[V:3] A3Bc8 | 
[V:4] c4f8 | 
[V:5] z2A3Bc2F4 | 
[V:6] z2A2FGABc4 | 
[V:7] c6A2A4 | 
[V:8] A12 | 
[V:9] A2F2C2c3BA2 | 
[V:10] F,6E,D,C,4 | 
[V:11] F,,12 | 
[V:12] C,6F,6 | 
[V:1] z2=B4G2B3c | 
[V:2] D4G8 | 
[V:3] B3cd4d4 | 
[V:4] z4d4g4 | 
[V:5] z2d3cBAG4 | 
[V:6] z2B2GABcd4 | 
[V:7] d12- | 
[V:8] =B12 | 
[V:9] G4D2G3FDE | 
[V:10] z2G,4F,E,D,4 | 
[V:11] G,,12 | 
[V:12] D,12 | 
[V:1] d4A4d4 | 
[V:2] F2A3G^FEF4 | 
[V:3] A4z2A2A4 | 
[V:4] a3gfed4d2 | 
[V:5] z2F3DFGA2d2- | 
[V:6] z2d4cBA4 | 
[V:7] d12 | 
[V:8] A12 | 
[V:9] F3DFGA4D2- | 
[V:10] z2D,4D,2F,3D, | 
[V:11] D,12 | 
[V:12] z8D,4 | 
[V:1] !fermata!d12 | 
[V:2] !fermata!G12 | 
[V:3] z2d3cBA!fermata!B4 | 
[V:4] z2g4fe!fermata!d4 | 
[V:5] d2B2!fermata!B8 | 
[V:6] !fermata!B12 | 
[V:7] !fermata!d12 | 
[V:8] !fermata!G12 | 
[V:9] D4!fermata!D8 | 
[V:10] D,4!fermata!D,8 | 
[V:11] !fermata!G,,12 | 
[V:12] !fermata![B,,12D,12] | 
[V:1] c4c2c2G3A | 
[V:2] G4G2G2E3F | 
[V:3] e4e2e2c2e2 | 
[V:4] c4c2c4c2 | 
[V:5] z12 | 
[V:6] z12 | 
[V:7] z12 | 
[V:8] G4G2G4G2 | 
[V:9] z12 | 
[V:10] C,4C,2C,4C,2 | 
[V:11] z12 | 
[V:12] z12 | 
[V:1] Bcd3cc4B2 | 
[V:2] G4F2E2D4 | 
[V:3] d3cBAG2d4 | 
[V:4] d4d2g3fg2 | 
[V:5] z12 | 
[V:6] z12 | 
[V:7] z12 | 
[V:8] G4D2E2G3F | 
[V:9] z12 | 
[V:10] G,,4B,,2C,2G,,4 | 
[V:11] z12 | 
[V:12] z12 | 
[V:1] c4z4z4 | 
[V:2] C4z4z4 | 
[V:3] G4z4z4 | 
[V:4] e4z4z4 | 
[V:5] g4g2g4g2 | 
[V:6] E4E2E4C2 | 
[V:7] e3ee2e2c2e2 | 
[V:8] G4z4z4 | 
[V:9] c4c2c2G3A | 
[V:10] C,4z4z4 | 
[V:11] C,4C,2C,4C,2 | 
[V:12] G,3G,G,2G,2E,3F, | 
[V:1] z12 | 
[V:2] z12 | 
[V:3] z12 | 
[V:4] z12 | 
[V:5] g4z2g2g2g2 | 
[V:6] D6E2G4 | 
[V:7] d3cBAG2d4 | 
[V:8] z12 | 
[V:9] Bcd3cc4B2 | 
[V:10] z12 | 
[V:11] G,,4B,,2C,2G,,4 | 
[V:12] G,4F,2E,2D,4 | 
[V:1] c4c2c2G3A | 
[V:2] G4G2G2E3F | 
[V:3] e4e2e2c2e2 | 
[V:4] c4c4c4 | 
[V:5] g4z4z4 | 
[V:6] E4z4z4 | 
[V:7] G4z4z4 | 
[V:8] G4G4G4 | 
[V:9] c4z4z4 | 
[V:10] C,4C,4C,4 | 
[V:11] C,4z4z4 | 
[V:12] C,4z4z4 | 
[V:1] Bcd3cc4B2 | 
[V:2] G4F2E2D4 | 
[V:3] d3cBAG2d4 | 
[V:4] d6g3fg2 | 
[V:5] z12 | 
[V:6] z12 | 
[V:7] z12 | 
[V:8] G4D2E2G3F | 
[V:9] z12 | 
[V:10] G,,4B,,2C,2G,,4 | 
[V:11] z12 | 
[V:12] z12 | 
[V:1] c4z8 | 
[V:2] C4z8 | 
[V:3] G4z8 | 
[V:4] e4z8 | 
[V:5] g4g2g4g2 | 
[V:6] E4E2E4C2 | 
[V:7] e4e2e2c2e2 | 
[V:8] G4z8 | 
[V:9] c4c2c2G3A | 
[V:10] C,4z8 | 
[V:11] C,4C,4C,4 | 
[V:12] G,4G,2G,2E,3F, | 
[V:1] z12 | 
[V:2] z12 | 
[V:3] z12 | 
[V:4] z12 | 
[V:5] g4z2g2g2g2 | 
[V:6] D6E2G4 | 
[V:7] d3cBAG2d4 | 
[V:8] z12 | 
[V:9] Bcd3cc4B2 | 
[V:10] z12 | 
[V:11] G,,4B,,2C,2G,,4 | 
[V:12] G,4F,2E,2D,4 | 
[V:1] c4c2c4c2 | 
[V:2] G4G2G4G2 | 
[V:3] e4e2e4e2 | 
[V:4] e4e2c4c2 | 
[V:5] g4c2g3fe2 | 
[V:6] E3FG2C2G4 | 
[V:7] G4E3FG2C2 | 
[V:8] c4c2G4G2 | 
[V:9] c2g3fede2g2- | 
[V:10] E,4C,2E,3D,E,C, | 
[V:11] C,4C,2C,4C,2 | 
[V:12] C,4G,4z4 | 
[V:1] B3ABcd3cBA | 
[V:2] G4z2G2B3c | 
[V:3] d3cBAB2G2d2 | 
[V:4] d4g3f/e/d2g2- | 
[V:5] z2d2G4z2d2- | 
[V:6] B3cd2G2d4 | 
[V:7] z2D4G3AB2- | 
[V:8] G4B3cd4- | 
[V:9] g2fed2B4G2 | 
[V:10] G,2G,3F,D,2G,4 | 
[V:11] G,,12 | 
[V:12] D,4D,2D,4D,2 | 
[V:1] B2A3GG4^F2 | 
[V:2] d4z4A4 | 
[V:3] z2d2G2G2d4 | 
[V:4] gffeg2c2d4 | 
[V:5] dcA2e3f/e/fedc | 
[V:6] D4z4F4 | 
[V:7] Bcd2B2G2z2d2 | 
[V:8] d4z2G2A4 | 
[V:9] D2F2z2G2D2d2- | 
[V:10] z2D,2G,4z2D,2 | 
[V:11] D,4E,4D,4 | 
[V:12] F,4z4D,4 | 
[V:1] G4z8 | 
[V:2] B8z4 | 
[V:3] d4z8 | 
[V:4] d4z8 | 
[V:5] d4G8 | 
[V:6] D4z8 | 
[V:7] B3cd4d4 | 
[V:8] G4z8 | 
[V:9] d2B2B4G4 | 
[V:10] D,6G,,2G,,4 | 
[V:11] G,,8z4 | 
[V:12] D,8z4 | 
[V:1] c4c2c4c2 | 
[V:2] G4G2G4G2 | 
[V:3] e4e2e4e2 | 
[V:4] e4e2c4c2 | 
[V:5] g4c2g3fe2 | 
[V:6] E3FG2C2G4 | 
[V:7] G4E3FG2C2 | 
[V:8] c4c2G4G2 | 
[V:9] z2g3fede2g2- | 
[V:10] E,4C,2E,3D,E,C, | 
[V:11] C,4C,2C,4C,2 | 
[V:12] C,4G,4z4 | 
[V:1] B3ABcd3cBA | 
[V:2] G4z2G2B3c | 
[V:3] d3cBAB2G2d2 | 
[V:4] d4g3f/e/d2g2- | 
[V:5] z2d2G4z2d2- | 
[V:6] B3cd2G2d4 | 
[V:7] z2D4G3AB2- | 
[V:8] G4B3cd4- | 
[V:9] g2fed2B4G2 | 
[V:10] G,2G,3F,D,2G,4 | 
[V:11] G,,12 | 
[V:12] D,4D,2D,4D,2 | 
[V:1] B2A3GG4^F2 | 
[V:2] d4z4A4 | 
[V:3] z2d2G2G2d4 | 
[V:4] gffeg2c2d4 | 
[V:5] dcA2e3f/e/fedc | 
[V:6] D4z4F4 | 
[V:7] Bcd2B2G2z2d2 | 
[V:8] d4z2G2A4 | 
[V:9] D2F2z2G2D2d2- | 
[V:10] z2D,2G,4z2D,2 | 
[V:11] D,4E,4D,4 | 
[V:12] F,4z4D,4 | 
[V:1] G12- | 
[V:2] B12- | 
[V:3] d12- | 
[V:4] d12- | 
[V:5] d4G8 | 
[V:6] D12- | 
[V:7] B3cd8- | 
[V:8] G12- | 
[V:9] d2B2B4G4- | 
[V:10] D,6G,,2G,,4- | 
[V:11] G,,12- | 
[V:12] D,12- | 
[V:1] G12 ||  
[V:2] B12 ||  
[V:3] d12 ||  
[V:4] d12 ||  
[V:5] d12 ||  
[V:6] D12 ||  
[V:7] d12 ||  
[V:8] G12 ||  
[V:9] G12 ||  
[V:10] G,,12 ||  
[V:11] G,,12 ||  
[V:12] D,12 ||  
[V:1]  [K:C] [K:clef=treble][M:2/1]z8 | 
[V:2]  [K:C] [K:clef=treble][M:2/1]z8 | 
[V:3]  [K:C] [K:clef=treble][M:2/1]z8 | 
[V:4]  [K:C] [K:clef=treble-8][M:2/1]z8 | 
[V:5]  [K:C] [K:clef=treble-8][M:2/1]D8 | 
[V:6]  [K:C] [K:clef=treble-8][M:2/1]G8 | 
[V:7]  [K:C] [K:clef=treble-8][M:2/1]z8 | 
[V:8]  [K:C] [K:clef=treble-8][M:2/1]z8 | 
[V:9]  [K:C] [K:clef=treble-8][M:2/1]B8 | 
[V:10]  [K:C] [K:clef=bass][M:2/1]G,,8 | 
[V:11]  [K:C] [K:clef=bass][M:2/1]z8 | 
[V:12]  [K:C] [K:clef=bass][M:2/1]z8 | 
[V:1] z8 | 
[V:2] z8 | 
[V:3] z8 | 
[V:4] z8 | 
[V:5] D4D4 | 
[V:6] G4G4 | 
[V:7] z8 | 
[V:8] z8 | 
[V:9] B4B4 | 
[V:10] G,,4G,,4 | 
[V:11] z8 | 
[V:12] z8 | 
[V:1] z8 | 
[V:2] z8 | 
[V:3] z8 | 
[V:4] z8 | 
[V:5] C4D4 | 
[V:6] E4G4 | 
[V:7] z8 | 
[V:8] z8 | 
[V:9] A4d4 | 
[V:10] A,,4B,,4 | 
[V:11] z8 | 
[V:12] z8 | 
[V:1] z8 | 
[V:2] z8 | 
[V:3] z8 | 
[V:4] z8 | 
[V:5] E4F4 | 
[V:6] A4A4 | 
[V:7] z8 | 
[V:8] z8 | 
[V:9] c4A4 | 
[V:10] C,4D,4 | 
[V:11] z8 | 
[V:12] z8 | 
[V:1] z8 | 
[V:2] z8 | 
[V:3] z8 | 
[V:4] z8 | 
[V:5] D8 | 
[V:6] G8 | 
[V:7] z8 | 
[V:8] z8 | 
[V:9] B8 | 
[V:10] G,,8 | 
[V:11] z8 | 
[V:12] z8 | 
[V:1] B8 :
[V:2] G8 | 
[V:3] D8 | 
[V:4] G8 | 
[V:5] z8 | 
[V:6] z8 | 
[V:7] z8 | 
[V:8] z8 | 
[V:9] z8 | 
[V:10] z8 | 
[V:11] z8 | 
[V:12] z8 | 
[V:1] B4B4 | 
[V:2] G4G4 | 
[V:3] D4D4 | 
[V:4] G4G4 | 
[V:5] z8 | 
[V:6] z8 | 
[V:7] z8 | 
[V:8] z8 | 
[V:9] z8 | 
[V:10] z8 | 
[V:11] z8 | 
[V:12] z8 | 
[V:1] B4B4 | 
[V:2] G4G4 | 
[V:3] E4D4 | 
[V:4] E4G4 | 
[V:5] z8 | 
[V:6] z8 | 
[V:7] z8 | 
[V:8] z8 | 
[V:9] z8 | 
[V:10] z8 | 
[V:11] z8 | 
[V:12] z8 | 
[V:1] A2c4BA | 
[V:2] E4F4 | 
[V:3] C4C4 | 
[V:4] A4A4 | 
[V:5] z8 | 
[V:6] z8 | 
[V:7] z8 | 
[V:8] z8 | 
[V:9] z8 | 
[V:10] z8 | 
[V:11] z8 | 
[V:12] z8 | 
[V:1] B8 :
[V:2] G8 | 
[V:3] D8 | 
[V:4] G8 | 
[V:5] z4D4 | 
[V:6] z4B4 | 
[V:7] z8 | 
[V:8] z8 | 
[V:9] z4G4 | 
[V:10] z4G,,4 | 
[V:11] z8 | 
[V:12] z8 | 
[V:1] z8 | 
[V:2] z8 | 
[V:3] z8 | 
[V:4] z8 | 
[V:5] E4E4 | 
[V:6] c4c4 | 
[V:7] z8 | 
[V:8] z8 | 
[V:9] A4A4 | 
[V:10] C,4C,4 | 
[V:11] z8 | 
[V:12] z8 | 
[V:1] z4B4 | 
[V:2] z4G4 | 
[V:3] z4D4 | 
[V:4] z4G4 | 
[V:5] D8 | 
[V:6] B8 | 
[V:7] z8 | 
[V:8] z8 | 
[V:9] G8 | 
[V:10] G,,8 | 
[V:11] z8 | 
[V:12] z8 | 
[V:1] c4c4 | 
[V:2] A4A4 | 
[V:3] E4E4 | 
[V:4] c4c4 | 
[V:5] z8 | 
[V:6] z8 | 
[V:7] z8 | 
[V:8] z8 | 
[V:9] z8 | 
[V:10] z8 | 
[V:11] z8 | 
[V:12] z8 | 
[V:1] B8 :
[V:2] G8 | 
[V:3] D8 | 
[V:4] G8 | 
[V:5] D4G4 | 
[V:6] B6AG | 
[V:7] z8 | 
[V:8] z8 | 
[V:9] G4D2G2- | 
[V:10] G,,8- | 
[V:11] z8 | 
[V:12] z8 | 
[V:1] z8 | 
[V:2] z8 | 
[V:3] z8 | 
[V:4] z8 | 
[V:5] z2D3EFG | 
[V:6] B6A2- | 
[V:7] z8 | 
[V:8] z8 | 
[V:9] G2FEF3D | 
[V:10] G,,4D,4 | 
[V:11] z8 | 
[V:12] z8 | 
[V:1] z8 | 
[V:2] z8 | 
[V:3] z8 | 
[V:4] z8 | 
[V:5] A2B2c4 | 
[V:6] AGG4^F2 | 
[V:7] z8 | 
[V:8] z8 | 
[V:9] E2D4C2 | 
[V:10] C,2B,,2A,,4 | 
[V:11] z8 | 
[V:12] z8 | 
[V:1] B6AG | 
[V:2] G4D2G2- | 
[V:3] D4G4 | 
[V:4] G8- | 
[V:5] B4z4 | 
[V:6] G4z4 | 
[V:7] z8 | 
[V:8] z8 | 
[V:9] D4z4 | 
[V:10] G,,4z4 | 
[V:11] z8 | 
[V:12] z8 | 
[V:1] B6A2- :
[V:2] G2FEF3D | 
[V:3] z2D3EFG | 
[V:4] G4d4 | 
[V:5] z8 | 
[V:6] z8 | 
[V:7] z8 | 
[V:8] z8 | 
[V:9] z8 | 
[V:10] z8 | 
[V:11] z8 | 
[V:12] z8 | 
[V:1] AGG4^F2 | 
[V:2] E2D4C2 | 
[V:3] A2B2c4 | 
[V:4] c2B2A4 | 
[V:5] z8 | 
[V:6] z8 | 
[V:7] z8 | 
[V:8] z8 | 
[V:9] z8 | 
[V:10] z8 | 
[V:11] z8 | 
[V:12] z8 | 
[V:1] G4z4 | 
[V:2] D4z4 | 
[V:3] B4z4 | 
[V:4] G4GABc | 
[V:5] z8 | 
[V:6] D6G2- | 
[V:7] d4d2d2 | 
[V:8] z8 | 
[V:9] z8 | 
[V:10] z8 | 
[V:11] G,,8 | 
[V:12] z8 | 
[V:1] z8 | 
[V:2] z8 | 
[V:3] z8 | 
[V:4] dcBAB4 | 
[V:5] z8 | 
[V:6] G2FED4 | 
[V:7] B4d4 | 
[V:8] G4G2G2 | 
[V:9] z8 | 
[V:10] z8 | 
[V:11] G,,4G,,4 | 
[V:12] z8 | 
[V:1] z8 | 
[V:2] z8 | 
[V:3] z8 | 
[V:4] c4G2c2- | 
[V:5] z8 | 
[V:6] z2G3FED | 
[V:7] e8 | 
[V:8] E4G4 | 
[V:9] z8 | 
[V:10] z8 | 
[V:11] C,4E,4- | 
[V:12] C,4C,2C,2 | 
[V:1] z8 | 
[V:2] z8 | 
[V:3] z8 | 
[V:4] cdefe2c2 | 
[V:5] z8 | 
[V:6] C2c3Gc2- | 
[V:7] e8 | 
[V:8] A4G4- | 
[V:9] z8 | 
[V:10] z8 | 
[V:11] E,4C,4 | 
[V:12] A,,4C,4 | 
[V:1] z8 | 
[V:2] z8 | 
[V:3] z8 | 
[V:4] g6fe | 
[V:5] z8 | 
[V:6] c2BAB4 | 
[V:7] d8 | 
[V:8] G8 | 
[V:9] z8 | 
[V:10] z8 | 
[V:11] G,,8 | 
[V:12] D,4D,4 | 
[V:1] z4c4 | 
[V:2] z4G4 | 
[V:3] z4e4 | 
[V:4] e4c2e2- | 
[V:5] z4G4 | 
[V:6] c4G2c2- | 
[V:7] z8 | 
[V:8] G8 | 
[V:9] z4c4 | 
[V:10] z4C,4 | 
[V:11] C,8 | 
[V:12] C,8 | 
[V:1] c4c4 :
[V:2] G4G4 | 
[V:3] e4e4 | 
[V:4] e2f2g4 | 
[V:5] G4G4 | 
[V:6] cBcde4 | 
[V:7] e8 | 
[V:8] c8 | 
[V:9] c4G2c2- | 
[V:10] E,6F,2 | 
[V:11] C,8 | 
[V:12] G,8 | 
[V:1] G6A2 | 
[V:2] c8 | 
[V:3] e8 | 
[V:4] e4c4 | 
[V:5] G8- | 
[V:6] c4G4 | 
[V:7] e4e4 | 
[V:8] c4c4 | 
[V:9] cBcde4 | 
[V:10] G,4C,4 | 
[V:11] C,4C,4 | 
[V:12] E,4E,4 | 
[V:1] B3cd2G2- | 
[V:2] z4d4- | 
[V:3] z4B4 | 
[V:4] z2g3fd2- | 
[V:5] G8 | 
[V:6] GFGAB3c | 
[V:7] d4d4 | 
[V:8] B4G4 | 
[V:9] z2B3cd2- | 
[V:10] D,8- | 
[V:11] G,,8 | 
[V:12] G,4D,4 | 
[V:1] G2^FEF4 | 
[V:2] d2B2A4 | 
[V:3] A2Bcd4 | 
[V:4] def3edc | 
[V:5] z4D4 | 
[V:6] d2D2A2D2- | 
[V:7] d8 | 
[V:8] A8 | 
[V:9] dcA4d2- | 
[V:10] D,8- | 
[V:11] D,8 | 
[V:12] F,8 | 
[V:1] G8 :
[V:2] B8 | 
[V:3] d8 | 
[V:4] B4z4 | 
[V:5] G3FD4 | 
[V:6] D4G4 | 
[V:7] z2d4cB | 
[V:8] G8 | 
[V:9] dcBAB4 | 
[V:10] D,8 | 
[V:11] G,,8 | 
[V:12] D,4z2D,2 | 
[V:1] z8 | 
[V:2] z8 | 
[V:3] z8 | 
[V:4] z8 | 
[V:5] z2D2D4 | 
[V:6] z8 | 
[V:7] c2d4B2- | 
[V:8] z4z2d2- | 
[V:9] z4z2D2 | 
[V:10] z8 | 
[V:11] C,2B,,2G,,4 | 
[V:12] E,2D,2G,4 | 
[V:1] z8 | 
[V:2] z8 | 
[V:3] z8 | 
[V:4] z8 | 
[V:5] z8 | 
[V:6] z8 | 
[V:7] B2AGA2B2 | 
[V:8] d2cBc2d2- | 
[V:9] G3FE2D2 | 
[V:10] G,,4C,2G,,2 | 
[V:11] z8 | 
[V:12] z8 | 
[V:1] z8 | 
[V:2] z8 | 
[V:3] z8 | 
[V:4] z8 | 
[V:5] z2D2G3F | 
[V:6] z8 | 
[V:7] G4z4 | 
[V:8] d2B4AG | 
[V:9] D4z4 | 
[V:10] G,,4z4 | 
[V:11] z2G,,4G,,2 | 
[V:12] z2D4CB, | 
[V:1] z4z2d2- :
[V:2] z8 | 
[V:3] z8 | 
[V:4] z8 | 
[V:5] E2D2D4 | 
[V:6] z8 | 
[V:7] z8 | 
[V:8] A2B2G4 | 
[V:9] z4z2D2 | 
[V:10] z4z2G,,2- | 
[V:11] C,2G,,2G,,4 | 
[V:12] C2D4B,2- | 
[V:1] d2cBc2d2- | 
[V:2] z8 | 
[V:3] z8 | 
[V:4] z8 | 
[V:5] z8 | 
[V:6] z8 | 
[V:7] z8 | 
[V:8] z8 | 
[V:9] G3FE2D2 | 
[V:10] G,,2G,,2C,2G,,2 | 
[V:11] z8 | 
[V:12] B,2A,G,A,2B,2 | 
[V:1] d2B4AG | 
[V:2] z2d4cB | 
[V:3] z8 | 
[V:4] z2d2g3f | 
[V:5] z8 | 
[V:6] z2G4G2 | 
[V:7] z8 | 
[V:8] z8 | 
[V:9] D4z4 | 
[V:10] G,,4z4 | 
[V:11] z8 | 
[V:12] G,4z4 | 
[V:1] A2B2G4 | 
[V:2] c2d4B2- | 
[V:3] z4z2d2- | 
[V:4] e2d2z2d2 | 
[V:5] z8 | 
[V:6] c2G2z2G2- | 
[V:7] z8 | 
[V:8] z8 | 
[V:9] z8 | 
[V:10] z8 | 
[V:11] z8 | 
[V:12] z8 | 
[V:1] z8 | 
[V:2] B2AGA2B2 | 
[V:3] d2cBc2d2- | 
[V:4] g3fe2d2 | 
[V:5] z8 | 
[V:6] G2G2c2G2 | 
[V:7] z8 | 
[V:8] z8 | 
[V:9] z8 | 
[V:10] z8 | 
[V:11] z8 | 
[V:12] z8 | 
[V:1] z8 | 
[V:2] G4z4 | 
[V:3] d2B4AG | 
[V:4] z8 | 
[V:5] z2D2G3F | 
[V:6] G4z4 | 
[V:7] z2d4cB | 
[V:8] z8 | 
[V:9] z8 | 
[V:10] z8 | 
[V:11] z2G,,4G,,2 | 
[V:12] z8 | 
[V:1] z8 | 
[V:2] z8 | 
[V:3] A2B2G4 | 
[V:4] z8 | 
[V:5] E2D2D4 | 
[V:6] z8 | 
[V:7] c2d4B2- | 
[V:8] z4z2d2- | 
[V:9] z4z2D2 | 
[V:10] z4z2G,,2- | 
[V:11] C,2G,,2G,,4 | 
[V:12] z8 | 
[V:1] z8 | 
[V:2] z8 | 
[V:3] z8 | 
[V:4] z8 | 
[V:5] z8 | 
[V:6] z8 | 
[V:7] B2AGA2B2 | 
[V:8] d2cBc2d2- | 
[V:9] G3FE2D2 | 
[V:10] G,,2G,,2C,2G,,2 | 
[V:11] z8 | 
[V:12] z8 | 
[V:1] z8 | 
[V:2] z8 | 
[V:3] z8 | 
[V:4] z8 | 
[V:5] z2D2G3F | 
[V:6] z8 | 
[V:7] G4z4 | 
[V:8] d2B4AG | 
[V:9] D4z4 | 
[V:10] G,,4z4 | 
[V:11] z2G,,4G,,2 | 
[V:12] z2D4CB, | 
[V:1] z4z2d2- | 
[V:2] z8 | 
[V:3] z8 | 
[V:4] z8 | 
[V:5] E2D2D4 | 
[V:6] z8 | 
[V:7] z8 | 
[V:8] A2B2G4 | 
[V:9] z4z2D2 | 
[V:10] z4z2G,,2- | 
[V:11] C,2G,,2G,,4 | 
[V:12] C2D4B,2- | 
[V:1] d2cBc2d2- | 
[V:2] z8 | 
[V:3] z8 | 
[V:4] z8 | 
[V:5] z8 | 
[V:6] z8 | 
[V:7] z8 | 
[V:8] z8 | 
[V:9] G3FE2D2 | 
[V:10] G,,2G,,2C,2G,,2 | 
[V:11] z8 | 
[V:12] B,2A,G,A,2B,2 | 
[V:1] d2B4AG | 
[V:2] z2d4cB | 
[V:3] z8 | 
[V:4] z2d2g3f | 
[V:5] z8 | 
[V:6] z2G4G2 | 
[V:7] z8 | 
[V:8] z8 | 
[V:9] D4z4 | 
[V:10] G,,4z4 | 
[V:11] z8 | 
[V:12] G,4z4 | 
[V:1] A2B2G4 :
[V:2] c2d4B2- | 
[V:3] z4z2d2- | 
[V:4] e2d2z2d2 | 
[V:5] z8 | 
[V:6] c2G2z2G2- | 
[V:7] z8 | 
[V:8] z8 | 
[V:9] z8 | 
[V:10] z8 | 
[V:11] z8 | 
[V:12] z8 | 
[V:1] z8 | 
[V:2] B2AGA2B2 | 
[V:3] d2cBc2d2- | 
[V:4] g3fe2d2 | 
[V:5] z8 | 
[V:6] G4c2G2 | 
[V:7] z8 | 
[V:8] z8 | 
[V:9] z8 | 
[V:10] z8 | 
[V:11] z8 | 
[V:12] z8 | 
[V:1] d8 | 
[V:2] G6^FE | 
[V:3] d2B4AG | 
[V:4] z2d4cB | 
[V:5] z8 | 
[V:6] G4D4 | 
[V:7] z8 | 
[V:8] z8 | 
[V:9] z8 | 
[V:10] z8 | 
[V:11] z8 | 
[V:12] z8 | 
[V:1] d8 | 
[V:2] ^F2GAB4 | 
[V:3] A2B2G4 | 
[V:4] A2d4G2 | 
[V:5] z8 | 
[V:6] D4G3A | 
[V:7] z8 | 
[V:8] z8 | 
[V:9] z4z2G2- | 
[V:10] z4G,,4 | 
[V:11] z8 | 
[V:12] z8 | 
[V:1] z8 | 
[V:2] z8 | 
[V:3] z8 | 
[V:4] G4z2G2- | 
[V:5] G3ABcd2 | 
[V:6] Bcd2G2z2 | 
[V:7] z2G3ABc | 
[V:8] z4G3A | 
[V:9] GABcd2G2 | 
[V:10] G,,8 | 
[V:11] z8 | 
[V:12] D,8 | 
[V:1] z8 | 
[V:2] z8 | 
[V:3] z8 | 
[V:4] GABcd2G2 | 
[V:5] G2z2G3A | 
[V:6] G3ABcd2 | 
[V:7] d2G2z2G2- | 
[V:8] Bcd2G2z2 | 
[V:9] z2G3ABc | 
[V:10] G,,8 | 
[V:11] z8 | 
[V:12] D,8 | 
[V:1] z8 | 
[V:2] z8 | 
[V:3] z8 | 
[V:4] z2G3ABc | 
[V:5] Bcd2G2z2 | 
[V:6] G2z2G3A | 
[V:7] GABcd2G2 | 
[V:8] G3ABcd2 | 
[V:9] d2G2z2G2- | 
[V:10] G,,8 | 
[V:11] z8 | 
[V:12] D,8 | 
[V:1] z8 | 
[V:2] z8 | 
[V:3] z8 | 
[V:4] d2G2z2G2- | 
[V:5] G3ABcd2 | 
[V:6] Bcd4G2- | 
[V:7] z2G3ABc | 
[V:8] G2z2G3A | 
[V:9] GABcd4- | 
[V:10] G,,8- | 
[V:11] z8 | 
[V:12] D,8 | 
[V:1] z8 | 
[V:2] z8 | 
[V:3] z8 | 
[V:4] GABcd2g2- | 
[V:5] G4z2d2 | 
[V:6] G2FED4 | 
[V:7] d2G3AB2 | 
[V:8] Bcd2G4 | 
[V:9] d2c4B2 | 
[V:10] G,,8 | 
[V:11] z8 | 
[V:12] D,8 | 
[V:1] z4c4- | 
[V:2] z4G4- | 
[V:3] z4E4- | 
[V:4] g2e2e4 | 
[V:5] e4c4 | 
[V:6] C4c4- | 
[V:7] G4z4 | 
[V:8] z8 | 
[V:9] c4G4- | 
[V:10] C,8 | 
[V:11] z4C,4- | 
[V:12] z8 | 
[V:1] c4c4 | 
[V:2] G4G4 | 
[V:3] E4E4 | 
[V:4] z8 | 
[V:5] z8 | 
[V:6] c4c4 | 
[V:7] z8 | 
[V:8] z8 | 
[V:9] G4G4 | 
[V:10] z8 | 
[V:11] C,4C,4 | 
[V:12] z8 | 
[V:1] c8 | 
[V:2] G8 | 
[V:3] E8 | 
[V:4] z8 | 
[V:5] z8 | 
[V:6] c8 | 
[V:7] z8 | 
[V:8] z8 | 
[V:9] G8 | 
[V:10] z8 | 
[V:11] C,8 | 
[V:12] z8 | 
[V:1] z8 | 
[V:2] z8 | 
[V:3] z8 | 
[V:4] z4g4- | 
[V:5] z4e4- | 
[V:6] z8 | 
[V:7] z4c4- | 
[V:8] z4G4- | 
[V:9] z8 | 
[V:10] z4C,4- | 
[V:11] z8 | 
[V:12] z4E,4- | 
[V:1] z8 | 
[V:2] z8 | 
[V:3] z8 | 
[V:4] g4g4 | 
[V:5] e4e4 | 
[V:6] z8 | 
[V:7] c4c4 | 
[V:8] G4G4 | 
[V:9] z8 | 
[V:10] C,4C,4 | 
[V:11] z8 | 
[V:12] E,4E,4 | 
[V:1] z8 | 
[V:2] z8 | 
[V:3] z8 | 
[V:4] g8 | 
[V:5] e8 | 
[V:6] z8 | 
[V:7] c8 | 
[V:8] G8 | 
[V:9] z8 | 
[V:10] C,8 | 
[V:11] z8 | 
[V:12] E,8 | 
[V:1] d8 | 
[V:2] B8 | 
[V:3] G8 | 
[V:4] d4d2g2- | 
[V:5] z8 | 
[V:6] d2d2B3c | 
[V:7] B8 | 
[V:8] G8 | 
[V:9] z4d2d2 | 
[V:10] D,4D,2B,,2- | 
[V:11] G,,8 | 
[V:12] D,8 | 
[V:1] d4d4 :
[V:2] G4G4 | 
[V:3] B4B4 | 
[V:4] g2feg2fe | 
[V:5] d2d2B3c | 
[V:6] d2G2z2d2- | 
[V:7] B4B4 | 
[V:8] G4G4 | 
[V:9] B3cd2G2 | 
[V:10] B,,C,D,2G,,2G,2- | 
[V:11] G,,4G,,4 | 
[V:12] D,4D,4 | 
[V:1] d4d4 | 
[V:2] B4B4 | 
[V:3] G4G4 | 
[V:4] d4z2G2- | 
[V:5] d2G2z2d2- | 
[V:6] dcBAG2FE | 
[V:7] B4B4 | 
[V:8] G4G4 | 
[V:9] z2d3cBA | 
[V:10] G,2F,E,D,4 | 
[V:11] G,,4G,,4 | 
[V:12] D,4D,4 | 
[V:1] d8 | 
[V:2] B6AG | 
[V:3] G8 | 
[V:4] GABcd4 | 
[V:5] dcBAG2d2- | 
[V:6] D4G4 | 
[V:7] d8 | 
[V:8] B8 | 
[V:9] G2FED4- | 
[V:10] z4D,4 | 
[V:11] G,,8 | 
[V:12] D,8 | 
[V:1] z4G4 | 
[V:2] F3GABA2- | 
[V:3] A4z2d2 | 
[V:4] z2d4f2- | 
[V:5] d2cBA4 | 
[V:6] z2D2F3G | 
[V:7] d8- | 
[V:8] A8- | 
[V:9] D2F3GA2 | 
[V:10] F,8- | 
[V:11] D,8- | 
[V:12] z8 | 
[V:1] d8- :
[V:2] AG^FEF4 | 
[V:3] d3c/B/A4 | 
[V:4] fga4d2 | 
[V:5] z4d4 | 
[V:6] A4D4 | 
[V:7] d8 | 
[V:8] A8 | 
[V:9] D4z4 | 
[V:10] F,4D,4 | 
[V:11] D,8 | 
[V:12] D,8 | 
[V:1] d8 ||  
[V:2] G8 ||  
[V:3] B8 ||  
[V:4] d8 ||  
[V:5] B8 ||  
[V:6] G8 & B8 ||  
[V:7] d8 ||  
[V:8] G8 ||  
[V:9] D8 & G8 ||  
[V:10] G,,8 & D,8 ||  
[V:11] G,,8 ||  
[V:12] D,8 ||  
[V:1]  [K:C] [K:clef=treble][M:2/1]G3ABGc2- | 
[V:2]  [K:C] [K:clef=treble][M:2/1]z8 | 
[V:3]  [K:C] [K:clef=treble][M:2/1]G8- | 
[V:4]  [K:C] [K:clef=treble-8][M:2/1]z2g4e2 | 
[V:5]  [K:C] [K:clef=treble-8][M:2/1]z8 | 
[V:6]  [K:C] [K:clef=treble-8][M:2/1]z4z2C2 | 
[V:7]  [K:C] [K:clef=treble-8][M:2/1]d4e2g2- | 
[V:8]  [K:C] [K:clef=treble-8][M:2/1]B4G3A | 
[V:9]  [K:C] [K:clef=treble-8][M:2/1]z8 | 
[V:10]  [K:C] [K:clef=bass][M:2/1]G,4E,2C,2 | 
[V:11]  [K:C] [K:clef=bass][M:2/1]z8 | 
[V:12]  [K:C] [K:clef=bass][M:2/1]G,3F,G,2C,2 | 
[V:1] cBBAc4 | 
[V:2] z4G3A | 
[V:3] G8- | 
[V:4] d4c2e2- | 
[V:5] z4z2g2- | 
[V:6] G4z2C2 | 
[V:7] gfg2e4 | 
[V:8] B4G3F | 
[V:9] z4z2e2 | 
[V:10] G,,4C,4 | 
[V:11] z4G,4 | 
[V:12] D,4E,4 | 
[V:1] z2c2d4 :
[V:2] BGc3BBA | 
[V:3] G8 | 
[V:4] efg3fd2 | 
[V:5] g2e2d4 | 
[V:6] G3AB4 | 
[V:7] z8 | 
[V:8] G2C2G4 | 
[V:9] e3fg4 | 
[V:10] z8 | 
[V:11] E,2C,2G,,4 | 
[V:12] z4D,4 | 
[V:1] e2E2G3A | 
[V:2] c4z2c2 | 
[V:3] G8- | 
[V:4] c2e3fg2- | 
[V:5] z2c2B2c2 | 
[V:6] G2c2G2C2 | 
[V:7] G3ABGc2- | 
[V:8] z8 | 
[V:9] e2g2z2G2- | 
[V:10] z2G,2E,2C,2 | 
[V:11] C,4z4 | 
[V:12] z2G,4E,2 | 
[V:1] Bcd2G4 | 
[V:2] d4e2E2 | 
[V:3] G8- | 
[V:4] gfd2c2e2- | 
[V:5] z2G4c2 | 
[V:6] G4z2c2 | 
[V:7] cBBAc4 | 
[V:8] z4G3A | 
[V:9] GAB2G2C2 | 
[V:10] G,,2G,,2C,4 | 
[V:11] z4z2G,2 | 
[V:12] D,4z2G,2- | 
[V:1] z8 :
[V:2] G3ABcd2 | 
[V:3] G8 | 
[V:4] efg3fd2 | 
[V:5] B2c2z2G2 | 
[V:6] G2C2G4 | 
[V:7] z2c2d4 | 
[V:8] BGc3BBA | 
[V:9] z2G3AB2 | 
[V:10] z8 | 
[V:11] E,2C,2G,,2G,,2 | 
[V:12] G,2E,2D,4 | 
[V:1] E3FGEA2- | 
[V:2] G4z4 | 
[V:3] E8- | 
[V:4] c2e4c2 | 
[V:5] G4c4 | 
[V:6] G6A2 | 
[V:7] e4z2e2- | 
[V:8] c2C2E3F | 
[V:9] G2c3Bcd | 
[V:10] z2C,4B,,A,, | 
[V:11] C,4z4 | 
[V:12] z2G,4C,2 | 
[V:1] A2^G2A4 | 
[V:2] z4E3F | 
[V:3] E8- | 
[V:4] B4A2c2- | 
[V:5] z2e2e4 | 
[V:6] B4c2e2- | 
[V:7] ede2c4 | 
[V:8] G4E4- | 
[V:9] e2B2z2A2 | 
[V:10] E,4A,,4 | 
[V:11] z4z2C,2- | 
[V:12] z2E,4C,2 | 
[V:1] z2A2B4 | 
[V:2] GEA3^GG^F | 
[V:3] E8- | 
[V:4] cde3dB2 | 
[V:5] z2E3FG2 | 
[V:6] edc2B2e2 | 
[V:7] z8 | 
[V:8] E8 | 
[V:9] c4G4 | 
[V:10] z8 | 
[V:11] C,2B,,A,,E,4 | 
[V:12] E,3F,G,4 | 
[V:1] c2C2E3F | 
[V:2] A4z2A2 | 
[V:3] E8- | 
[V:4] A2c3de2- | 
[V:5] E4C4 | 
[V:6] z2e3dc2 | 
[V:7] E3FGEA2- | 
[V:8] z8 | 
[V:9] c2A2c4 | 
[V:10] z2C,4B,,A,, | 
[V:11] A,,4z4 | 
[V:12] C,4z2E,2- | 
[V:1] GAB2z2E2 | 
[V:2] B4c2C2 | 
[V:3] E8- | 
[V:4] edB2A2c2- | 
[V:5] z2E2E3D | 
[V:6] B2e2z2e2- | 
[V:7] AGGFA4 | 
[V:8] z4E3F | 
[V:9] G4c2A2 | 
[V:10] E,4A,,4 | 
[V:11] z4z2C,2- | 
[V:12] E,F,G,2C,4 | 
[V:1] E4z4 :
[V:2] E3FGAB2 | 
[V:3] E8 | 
[V:4] cde3dB2 | 
[V:5] C4z2E2 | 
[V:6] edc2B4 | 
[V:7] z2A2B4 | 
[V:8] GEA3GGF | 
[V:9] c4G4 | 
[V:10] z8 | 
[V:11] C,2B,,A,,E,4 | 
[V:12] z2E,3F,G,2 | 
[V:1] e3dc2B2 | 
[V:2] E4z4 | 
[V:3] G8- | 
[V:4] z8 | 
[V:5] E2CDECD2 | 
[V:6] z2G3AB2 | 
[V:7] c4G4 | 
[V:8] E4z4 | 
[V:9] g3fe2d2 | 
[V:10] C,2E,3F,G,2 | 
[V:11] C,6G,,2 | 
[V:12] C,4z4 | 
[V:1] ze2dc2B2 | 
[V:2] z8 | 
[V:3] G8- | 
[V:4] z8 | 
[V:5] E2CDECD2 | 
[V:6] c2G3AB2 | 
[V:7] E3FG4 | 
[V:8] z8 | 
[V:9] cg2fe2d2 | 
[V:10] C,2E,3F,G,2 | 
[V:11] C,6G,,2 | 
[V:12] z8 | 
[V:1] ze2dc2B2 :
[V:2] z8 | 
[V:3] G8 | 
[V:4] z8 | 
[V:5] E2CDECD2 | 
[V:6] c2G3AB2 | 
[V:7] z2C2G4 | 
[V:8] z8 | 
[V:9] cg2fe2d2 | 
[V:10] C,2E,3F,G,2 | 
[V:11] C,6G,,2 | 
[V:12] z8 | 
[V:1] z8 | 
[V:2] e3dc2B2 | 
[V:3] G8- | 
[V:4] g3fe2d2 | 
[V:5] E4z4 | 
[V:6] c4z4 | 
[V:7] z2E2G4 | 
[V:8] z2G3AB2 | 
[V:9] z8 | 
[V:10] C,6G,,2 | 
[V:11] C,2E,3F,G,2 | 
[V:12] E,2C,D,E,C,D,2 | 
[V:1] z8 | 
[V:2] ze2dc2B2 | 
[V:3] G8- | 
[V:4] cg2fe2d2 | 
[V:5] z8 | 
[V:6] z8 | 
[V:7] z2C2G4 | 
[V:8] c2G3AB2 | 
[V:9] z8 | 
[V:10] C,6G,,2 | 
[V:11] C,2E,3F,G,2 | 
[V:12] E,2C,D,E,C,D,2 | 
[V:1] z8 | 
[V:2] ze2dc2B2 | 
[V:3] G8 | 
[V:4] cg2fe2d2 | 
[V:5] z8 | 
[V:6] z8 | 
[V:7] z2E2G4 | 
[V:8] c2G3AB2 | 
[V:9] z8 | 
[V:10] C,6G,,2 | 
[V:11] C,2E,3F,G,2 | 
[V:12] E,2C,D,E,C,D,2 | 
[V:1] A3GF2E2 | 
[V:2] z8 | 
[V:3] A8- | 
[V:4] z8 | 
[V:5] F2DEFDE2 | 
[V:6] z2A3Bc2 | 
[V:7] z8 | 
[V:8] d4A4 | 
[V:9] f3ed2c2 | 
[V:10] D,2F,3G,A,2 | 
[V:11] D,6A,,2 | 
[V:12] z8 | 
[V:1] DA2GF2E2 | 
[V:2] z8 | 
[V:3] A8- | 
[V:4] z8 | 
[V:5] F2DEFDE2 | 
[V:6] d2A3Bc2 | 
[V:7] z8 | 
[V:8] F3GA4 | 
[V:9] zf2ed2c2 | 
[V:10] D,2F,3G,A,2 | 
[V:11] D,6A,,2 | 
[V:12] z8 | 
[V:1] DA2GF2E2 :
[V:2] z8 | 
[V:3] A8 | 
[V:4] z8 | 
[V:5] F2DEFDE2 | 
[V:6] d2A3Bc2 | 
[V:7] z8 | 
[V:8] z2D2A4 | 
[V:9] zf2ed2c2 | 
[V:10] D,2F,3G,A,2 | 
[V:11] D,6A,,2 | 
[V:12] z8 | 
[V:1] D4z4 | 
[V:2] A3GF2E2 | 
[V:3] A8- | 
[V:4] f3ed2c2 | 
[V:5] F4z4 | 
[V:6] d4z4 | 
[V:7] z2A3Bc2 | 
[V:8] z2F2A4 | 
[V:9] z8 | 
[V:10] D,6A,,2 | 
[V:11] D,2F,3G,A,2 | 
[V:12] F,2D,E,F,D,E,2 | 
[V:1] z8 | 
[V:2] DA2GF2E2 | 
[V:3] A8- | 
[V:4] f3ed2c2 | 
[V:5] z8 | 
[V:6] z8 | 
[V:7] d2A3Bc2 | 
[V:8] z2D2A4 | 
[V:9] z8 | 
[V:10] D,6A,,2 | 
[V:11] D,2F,3G,A,2 | 
[V:12] F,2D,E,F,D,E,2 | 
[V:1] z8 :
[V:2] DA2GF2E2 | 
[V:3] A8 | 
[V:4] f3ed2c2 | 
[V:5] z8 | 
[V:6] z8 | 
[V:7] d2A3Bc2 | 
[V:8] z2F2A4 | 
[V:9] z8 | 
[V:10] D,6A,,2 | 
[V:11] D,2F,3G,A,2 | 
[V:12] F,2D,E,F,D,E,2 | 
[V:1] G4d4 | 
[V:2] z8 | 
[V:3] G8- | 
[V:4] z2g3fd2 | 
[V:5] G3AB2G2- | 
[V:6] z8 | 
[V:7] z2c4B2 | 
[V:8] z2E2G3F | 
[V:9] z8 | 
[V:10] C,4G,,4 | 
[V:11] E,2G,3A,B,2 | 
[V:12] E,3C,D,4 | 
[V:1] G2c2d4 | 
[V:2] z8 | 
[V:3] G8- | 
[V:4] e2c4B2 | 
[V:5] GFGAB2G2- | 
[V:6] z8 | 
[V:7] c2G2d4 | 
[V:8] ECE2D4 | 
[V:9] z2g3fd2 | 
[V:10] C,4G,,4 | 
[V:11] E,4z4 | 
[V:12] C,4z2G,2- | 
[V:1] G4z4 | 
[V:2] z2G2d4 | 
[V:3] G8 | 
[V:4] c4d4 | 
[V:5] GFGAB2G2- | 
[V:6] z2g3fd2 | 
[V:7] z2G3AB2 | 
[V:8] C4z2G2- | 
[V:9] e2c4B2 | 
[V:10] C,4G,,4 | 
[V:11] z8 | 
[V:12] G,2E,2D,4 | 
[V:1] z2G3FD2 | 
[V:2] G2c2d4 | 
[V:3] G8- | 
[V:4] z2G3AB2 | 
[V:5] GFGAB2G2- | 
[V:6] e2c4B2 | 
[V:7] G2C2G4 | 
[V:8] G2E2D4 | 
[V:9] c2e2g3f | 
[V:10] C,4z4 | 
[V:11] C,4G,,4 | 
[V:12] C,4z2G,2- | 
[V:1] E2C4B,2 | 
[V:2] z2G3FD2 | 
[V:3] G8- | 
[V:4] G4d4 | 
[V:5] GFGAB2G2 | 
[V:6] c4d2G2- | 
[V:7] z2G3AB2 | 
[V:8] C4z2G2- | 
[V:9] e4z2g2 | 
[V:10] z8 | 
[V:11] C,4G,,4 | 
[V:12] G,2E,2D,4 | 
[V:1] C4z4 :
[V:2] E2C4B,2 | 
[V:3] G8 | 
[V:4] z2g3fd2 | 
[V:5] z2G2G4 | 
[V:6] GFGAB4 | 
[V:7] G2c2d4 | 
[V:8] G2E2D4 | 
[V:9] e3fg4 | 
[V:10] z4z2G,,2 | 
[V:11] C,4G,,4 | 
[V:12] z2C,2G,2G,2 | 
[V:1] E8 | 
[V:2] C4z2A2 | 
[V:3] z8 | 
[V:4] e4z4 | 
[V:5] z8 | 
[V:6] G4z4 | 
[V:7] z2G2c2c2 | 
[V:8] C4z2C2 | 
[V:9] g2e3dec | 
[V:10] C,2C,2A,,2A,,2 | 
[V:11] z8 | 
[V:12] E,2E,2A,2A,2 | 
[V:1] F4G4- | 
[V:2] A4B4- | 
[V:3] z8 | 
[V:4] z2d3cBA | 
[V:5] z8 | 
[V:6] z8 | 
[V:7] A2A2d2d2 | 
[V:8] F2F2D2D2 | 
[V:9] d6G2 | 
[V:10] D,2D,2G,,4 | 
[V:11] z8 | 
[V:12] D,8 | 
[V:1] G8 | 
[V:2] B4c4- | 
[V:3] z8 | 
[V:4] B4z4 | 
[V:5] z8 | 
[V:6] z4z2G2 | 
[V:7] G4e4- | 
[V:8] G2G2C4 | 
[V:9] z2d2c3d | 
[V:10] z8 | 
[V:11] z2G,,2C,2C,2 | 
[V:12] z2D,2E,4- | 
[V:1] A8 | 
[V:2] c4d4 | 
[V:3] z8 | 
[V:4] z8 | 
[V:5] z2C2F2F2 | 
[V:6] c2c2A2A2 | 
[V:7] e4f4 | 
[V:8] z8 | 
[V:9] e2A3FA2 | 
[V:10] z8 | 
[V:11] A,,2A,,2D,2D,2 | 
[V:12] E,4D,4 | 
[V:1] B4z4 | 
[V:2] z2D2D4 | 
[V:3] z4z2D2 | 
[V:4] z8 | 
[V:5] D2D2G2G2 | 
[V:6] d2d2G4 | 
[V:7] g8 | 
[V:8] z8 | 
[V:9] G3F/E/D4 | 
[V:10] z8 | 
[V:11] G,,8 | 
[V:12] z8 | 
[V:1] z4z2G2 :
[V:2] z8 | 
[V:3] G2G2E2E2 | 
[V:4] z2G2c2c2 | 
[V:5] C4z4 | 
[V:6] z8 | 
[V:7] z8 | 
[V:8] z8 | 
[V:9] z8 | 
[V:10] z8 | 
[V:11] z8 | 
[V:12] z8 | 
[V:1] c2c2A2A2 | 
[V:2] z2C2F2F2 | 
[V:3] A2A2D4 | 
[V:4] A2A2d2d2 | 
[V:5] z8 | 
[V:6] z8 | 
[V:7] z8 | 
[V:8] z8 | 
[V:9] z8 | 
[V:10] z8 | 
[V:11] z8 | 
[V:12] z8 | 
[V:1] d2d2G4 :
[V:2] D2D2G2G2 | 
[V:3] z2B3Gc2- | 
[V:4] G8 | 
[V:5] z8 | 
[V:6] z4z2c2- | 
[V:7] z8 | 
[V:8] z8 | 
[V:9] z4z2C2 | 
[V:10] z8 | 
[V:11] z8 | 
[V:12] z8 | 
[V:1] z8 | 
[V:2] C4z2A2 | 
[V:3] cBAG^F4 | 
[V:4] A8 | 
[V:5] z8 | 
[V:6] c2c2d4 | 
[V:7] z8 | 
[V:8] z8 | 
[V:9] F2F2D2D2 | 
[V:10] z8 | 
[V:11] z8 | 
[V:12] z8 | 
[V:1] B4c4- | 
[V:2] B4G4 | 
[V:3] G4z2G2 | 
[V:4] G8 | 
[V:5] z8 | 
[V:6] d2cBe4- | 
[V:7] z4z2G2 | 
[V:8] z8 | 
[V:9] G2G2C3D | 
[V:10] z2G,,2C,4 | 
[V:11] z8 | 
[V:12] z2G,2E,2E,2 | 
[V:1] c4d4 | 
[V:2] z8 | 
[V:3] A4A4 | 
[V:4] z4z2d2- | 
[V:5] z8 | 
[V:6] e4f4 | 
[V:7] c4A4 | 
[V:8] z2C2F4 | 
[V:9] E4D4 | 
[V:10] A,,4D,2D,2 | 
[V:11] z8 | 
[V:12] A,2A,2D,4- | 
[V:1] d8 :
[V:2] z8 | 
[V:3] B8 | 
[V:4] dcBAB4 | 
[V:5] z8 | 
[V:6] g8 | 
[V:7] d2d2G4 | 
[V:8] D4G2G2 | 
[V:9] z2d2d2d2 | 
[V:10] G,,4z4 | 
[V:11] z4z2G,,2 | 
[V:12] D,4z2D,2 | 
[V:1] z8 | 
[V:2] z8 | 
[V:3] c8 | 
[V:4] z8 | 
[V:5] z4z2C2 | 
[V:6] z2G2c4 | 
[V:7] e8 | 
[V:8] C4z4 | 
[V:9] c3de2A2- | 
[V:10] z8 | 
[V:11] C,4A,,4 | 
[V:12] E,8 | 
[V:1] z8 | 
[V:2] z8 | 
[V:3] d4z4 | 
[V:4] z8 | 
[V:5] F4D4 | 
[V:6] A4d2d2 | 
[V:7] f4g4- | 
[V:8] z8 | 
[V:9] AFA2G3F/E/ | 
[V:10] z8 | 
[V:11] D,2D,2G,,4- | 
[V:12] D,4z4 | 
[V:1] z8 | 
[V:2] z8 | 
[V:3] z2D2G4 | 
[V:4] z4z2G2 | 
[V:5] G2G2C4 | 
[V:6] G4z4 | 
[V:7] g4z4 | 
[V:8] z8 | 
[V:9] D4z4 | 
[V:10] z8 | 
[V:11] G,,4z4 | 
[V:12] z8 | 
[V:1] z2G2c4 | 
[V:2] z4z2C2 | 
[V:3] E4A2A2 | 
[V:4] c4A4 | 
[V:5] z8 | 
[V:6] z8 | 
[V:7] z8 | 
[V:8] z8 | 
[V:9] z8 | 
[V:10] z8 | 
[V:11] z8 | 
[V:12] z8 | 
[V:1] A4d2d2 | 
[V:2] F4D4 | 
[V:3] D4z2B2- | 
[V:4] d2d2G4- | 
[V:5] z8 | 
[V:6] z8 | 
[V:7] z8 | 
[V:8] z8 | 
[V:9] z8 | 
[V:10] z8 | 
[V:11] z8 | 
[V:12] z8 | 
[V:1] G4z4 | 
[V:2] G2G2C4 | 
[V:3] BGc3BAG | 
[V:4] G4A4- | 
[V:5] z8 | 
[V:6] z2c4c2 | 
[V:7] z8 | 
[V:8] z8 | 
[V:9] z2C2F4 | 
[V:10] z8 | 
[V:11] z8 | 
[V:12] z8 | 
[V:1] z8 | 
[V:2] z2A2B4 | 
[V:3] ^F4G4 | 
[V:4] A4G4 | 
[V:5] z8 | 
[V:6] d6cB | 
[V:7] z8 | 
[V:8] z8 | 
[V:9] D4G2G2 | 
[V:10] z8 | 
[V:11] z4G,,4 | 
[V:12] z8 | 
[V:1] z8 :
[V:2] c8 | 
[V:3] z4G4- | 
[V:4] G8 | 
[V:5] E8 | 
[V:6] e8 | 
[V:7] c8 | 
[V:8] z4G4 | 
[V:9] C4z4 | 
[V:10] z8 | 
[V:11] C,8 | 
[V:12] z8 | 
[V:1] d4B3c | 
[V:2] B6B2 | 
[V:3] G4G4 | 
[V:4] G3ABcd2 | 
[V:5] G4G2D2- | 
[V:6] d2g4fe | 
[V:7] d4d4 | 
[V:8] B8 | 
[V:9] z2G2D2G2- | 
[V:10] D,4D,2D,2 | 
[V:11] G,,8 | 
[V:12] G,4G,4 | 
[V:1] d2G3ABc :
[V:2] B8- | 
[V:3] G4G4- | 
[V:4] G2d2z2g2 | 
[V:5] D2D2G4 | 
[V:6] d2d3cBA | 
[V:7] d4d4- | 
[V:8] B4B4- | 
[V:9] GAB2G2d2- | 
[V:10] B,,3C,D,2G,,2- | 
[V:11] G,,6G,,2 | 
[V:12] G,4D,4- | 
[V:1] d8 | 
[V:2] B8 | 
[V:3] G2G2G4 | 
[V:4] g3f/e/d2g2 | 
[V:5] G3AB4 | 
[V:6] G4z2d2 | 
[V:7] d2d2d4 | 
[V:8] B2B2B4 | 
[V:9] dcB3AG2 | 
[V:10] G,,A,,B,,C,D,4 | 
[V:11] G,,8 | 
[V:12] D,2D,2G,4 | 
[V:1] e4e2e2- | 
[V:2] G4G2G2- | 
[V:3] z2G2c4 | 
[V:4] e4c2c2 | 
[V:5] E4E2E2- | 
[V:6] cdefg2G2 | 
[V:7] z2c2e4 | 
[V:8] c4c2c2- | 
[V:9] z2G3FED | 
[V:10] z4G,2G,2 | 
[V:11] C,4C,2C,2- | 
[V:12] G,2G,2G,2G,2 | 
[V:1] e2e2e2e2 | 
[V:2] G2G2G2G2 | 
[V:3] c2c2c2c2 | 
[V:4] c2c2e4- | 
[V:5] E2E2E2E2 | 
[V:6] G2G2c4 | 
[V:7] e2e2c2c2 | 
[V:8] c2c2G2G2 | 
[V:9] C2c4BA | 
[V:10] G,2G,2E,3F, | 
[V:11] C,2C,2C,2C,2 | 
[V:12] E,3F,G,2C,2- | 
[V:1] c4e4 :
[V:2] G4c4 | 
[V:3] c3B/A/G4 | 
[V:4] e2g3fe2 | 
[V:5] E4z4 | 
[V:6] c4c4 | 
[V:7] e4c4 | 
[V:8] G4G4 | 
[V:9] G4z4 | 
[V:10] G,2C,3D,E,F, | 
[V:11] C,8 | 
[V:12] C,D,E,F,G,4 | 
[V:1] d2d3cBA | 
[V:2] B3cd2d2- | 
[V:3] z2G4FE | 
[V:4] z2g3fd2 | 
[V:5] D4G3A | 
[V:6] z2B2GABc | 
[V:7] d8- | 
[V:8] B8- | 
[V:9] D4D4 | 
[V:10] G,4D,4 | 
[V:11] G,,8 | 
[V:12] z4G,4 | 
[V:1] G2FED4 | 
[V:2] dcBAG2FE | 
[V:3] D2B3AG2- | 
[V:4] z2G2B3c | 
[V:5] B3cd4 | 
[V:6] d4G2d2- | 
[V:7] d8 | 
[V:8] B8 | 
[V:9] G6AG | 
[V:10] D,8 | 
[V:11] G,,8 | 
[V:12] G,2G,3F,D,E, | 
[V:1] z4d4 | 
[V:2] D2d3cd2 | 
[V:3] G2^FEF4 | 
[V:4] def3edc | 
[V:5] D4z2d2- | 
[V:6] d2cBA4 | 
[V:7] d8 | 
[V:8] A8 | 
[V:9] A4D4 | 
[V:10] z4D,4 | 
[V:11] D,8 | 
[V:12] F,8 | 
[V:1] d8- :
[V:2] B8- | 
[V:3] G8- | 
[V:4] d8- | 
[V:5] dcBAG2FE | 
[V:6] B8- | 
[V:7] d8- | 
[V:8] G8- | 
[V:9] G8- | 
[V:10] D,6G,,2 | 
[V:11] G,,8- | 
[V:12] D,8- | 
[V:1] d8 ||  
[V:2] B8 ||  
[V:3] G8 ||  
[V:4] d8 ||  
[V:5] D8 ||  
[V:6] B8 ||  
[V:7] d8 ||  
[V:8] G8 ||  
[V:9] G8 ||  
[V:10] G,,8 ||  
[V:11] G,,8 ||  
[V:12] D,8 ||  
[V:1]  [K:C] [K:clef=treble][M:3/1]G4G4G4 | 
[V:2]  [K:C] [K:clef=treble][M:3/1]B6A2G4 | 
[V:3]  [K:C] [K:clef=treble][M:3/1]d6c2B4 | 
[V:4]  [K:C] [K:clef=treble-8][M:3/1]G8G4 | 
[V:5]  [K:C] [K:clef=treble-8][M:3/1]z12 | 
[V:6]  [K:C] [K:clef=treble-8][M:3/1]D8D4 | 
[V:7]  [K:C] [K:clef=treble-8][M:3/1]z12 | 
[V:8]  [K:C] [K:clef=treble-8][M:3/1]z12 | 
[V:9]  [K:C] [K:clef=treble-8][M:3/1]d8d4 | 
[V:10]  [K:C] [K:clef=bass][M:3/1]z12 | 
[V:11]  [K:C] [K:clef=bass][M:3/1]G,,8G,,4 | 
[V:12]  [K:C] [K:clef=bass][M:3/1]z12 | 
[V:1] d8d4 :
[V:2] G8^F4 | 
[V:3] B4A2G2A4 | 
[V:4] G4A4A4 | 
[V:5] z4z4D4 | 
[V:6] D6E2F4 | 
[V:7] z12 | 
[V:8] z12 | 
[V:9] d4d4d4 | 
[V:10] z12 | 
[V:11] G,,4D,4D,4 | 
[V:12] z12 | 
[V:1] B8z4 | 
[V:2] G8z4 | 
[V:3] G8z4 | 
[V:4] B8z4 | 
[V:5] G8D4 | 
[V:6] D8z4 | 
[V:7] B8d4 | 
[V:8] G4B6A2 | 
[V:9] d8B4 | 
[V:10] G,,8G,,4 | 
[V:11] G,,8z4 | 
[V:12] D,4D,4G,4 | 
[V:1] z12 | 
[V:2] z12 | 
[V:3] z12 | 
[V:4] z12 | 
[V:5] D6E2F4 | 
[V:6] z12 | 
[V:7] B4A4A4 | 
[V:8] G4^F6G^F | 
[V:9] d6c2A4 | 
[V:10] G,,4D,4D,4 | 
[V:11] z12 | 
[V:12] D,4F,2E,2D,2C,2 | 
[V:1] z4z4G4 | 
[V:2] z4z4d4 | 
[V:3] z4z4B4 | 
[V:4] z4z4B4 | 
[V:5] D8z4 | 
[V:6] z4z4D4 | 
[V:7] G8z4 | 
[V:8] G8z4 | 
[V:9] B8z4 | 
[V:10] G,,8z4 | 
[V:11] z4z4G,,4 | 
[V:12] B,,8z4 | 
[V:1] G6G2D4 :
[V:2] B6B2A4 | 
[V:3] d6d2d4 | 
[V:4] B6A2F4 | 
[V:5] z12 | 
[V:6] D6D2F4 | 
[V:7] z12 | 
[V:8] z12 | 
[V:9] z12 | 
[V:10] z12 | 
[V:11] G,,6G,,2D,4 | 
[V:12] z12 | 
[V:1] G4E4D4 | 
[V:2] G4G4^F4 | 
[V:3] d4c4A4 | 
[V:4] G4A4A4 | 
[V:5] z12 | 
[V:6] D4E4F4 | 
[V:7] z12 | 
[V:8] z12 | 
[V:9] z12 | 
[V:10] z12 | 
[V:11] B,,4C,4D,4 | 
[V:12] z12 | 
[V:1] D8z4 | 
[V:2] G8z4 | 
[V:3] B8z4 | 
[V:4] G8z4 | 
[V:5] z4z4G4 | 
[V:6] D8z4 | 
[V:7] z4z4d4 | 
[V:8] z4z4B4 | 
[V:9] z4z4B4 | 
[V:10] z4z4G,,4 | 
[V:11] G,,8z4 | 
[V:12] z4z4D,4 | 
[V:1] z12 | 
[V:2] z12 | 
[V:3] z12 | 
[V:4] z12 | 
[V:5] G6G2D4 | 
[V:6] z12 | 
[V:7] d6B2A4 | 
[V:8] G4d4d4 | 
[V:9] B6A2F4 | 
[V:10] G,,6G,,2D,4 | 
[V:11] z12 | 
[V:12] D,6D,2F,4 | 
[V:1] z12 | 
[V:2] z12 | 
[V:3] z12 | 
[V:4] z12 | 
[V:5] G4E4D4 | 
[V:6] z12 | 
[V:7] G4G4^F4 | 
[V:8] d4c4A4 | 
[V:9] G4A4A4 | 
[V:10] B,,4C,4D,4 | 
[V:11] z12 | 
[V:12] D,4E,4F,4 | 
[V:1] z4z4G4 | 
[V:2] z4z4d4 | 
[V:3] z4z4B4 | 
[V:4] z4z4B4 | 
[V:5] d8z4 | 
[V:6] z4z4D4 | 
[V:7] G8z4 | 
[V:8] B8z4 | 
[V:9] G8z4 | 
[V:10] G,,8z4 | 
[V:11] z4z4G,,4 | 
[V:12] D,8z4 | 
[V:1] G6G2D4 | 
[V:2] B6B2A4 | 
[V:3] d6d2d4 | 
[V:4] B6A2F4 | 
[V:5] z12 | 
[V:6] D6D2F4 | 
[V:7] z12 | 
[V:8] z12 | 
[V:9] z12 | 
[V:10] z12 | 
[V:11] G,,6G,,2D,4 | 
[V:12] z12 | 
[V:1] G4E4D4 | 
[V:2] G4G4^F4 | 
[V:3] d4c4A4 | 
[V:4] G4A4A4 | 
[V:5] z12 | 
[V:6] D4E4F4 | 
[V:7] z12 | 
[V:8] z12 | 
[V:9] z12 | 
[V:10] z12 | 
[V:11] B,,4C,4D,4 | 
[V:12] z12 | 
[V:1] D8z4 | 
[V:2] G8z4 | 
[V:3] B8z4 | 
[V:4] G8z4 | 
[V:5] z4z4G4 | 
[V:6] D8z4 | 
[V:7] z4z4d4 | 
[V:8] z4z4B4 | 
[V:9] z4z4B4 | 
[V:10] z4z4G,,4 | 
[V:11] G,,8z4 | 
[V:12] z4z4D,4 | 
[V:1] z12 | 
[V:2] z12 | 
[V:3] z12 | 
[V:4] z12 | 
[V:5] G6G2D4 | 
[V:6] z12 | 
[V:7] d6B2A4 | 
[V:8] G4d4d4 | 
[V:9] B6A2F4 | 
[V:10] G,,6G,,2D,4 | 
[V:11] z12 | 
[V:12] D,6D,2F,4 | 
[V:1] z12 | 
[V:2] z12 | 
[V:3] z12 | 
[V:4] z12 | 
[V:5] G4E4D4 | 
[V:6] z12 | 
[V:7] G4G4^F4 | 
[V:8] d4c4A4 | 
[V:9] G4A4A4 | 
[V:10] B,,4C,4D,4 | 
[V:11] z12 | 
[V:12] D,4E,4F,4 | 
[V:1] z4z4G4 | 
[V:2] z4z4d4 | 
[V:3] z4z4B4 | 
[V:4] z4z4B4 | 
[V:5] d8z4 | 
[V:6] z4z4G4 | 
[V:7] G8z4 | 
[V:8] B8z4 | 
[V:9] G8z4 | 
[V:10] G,,8z4 | 
[V:11] z4z4G,,4 | 
[V:12] D,8z4 | 
[V:1] E4F4D4 :
[V:2] c4A4B4 | 
[V:3] A8G4 | 
[V:4] c8B4 | 
[V:5] z12 | 
[V:6] C8G4 | 
[V:7] z12 | 
[V:8] z12 | 
[V:9] z12 | 
[V:10] z12 | 
[V:11] A,,4F,,4G,,4 | 
[V:12] z12 | 
[V:1] A8c4 | 
[V:2] c6B2A2G2 | 
[V:3] c4A4z4 | 
[V:4] A4c6c2 | 
[V:5] z12 | 
[V:6] E4F6E2 | 
[V:7] z12 | 
[V:8] z12 | 
[V:9] z12 | 
[V:10] z12 | 
[V:11] A,,4F,,8 | 
[V:12] z12 | 
[V:1] B4A6BA | 
[V:2] G8^F4 | 
[V:3] d8d4 | 
[V:4] G4A8 | 
[V:5] z12 | 
[V:6] D6E2F4 | 
[V:7] z12 | 
[V:8] z12 | 
[V:9] z12 | 
[V:10] z12 | 
[V:11] G,,4D,8 | 
[V:12] z12 | 
[V:1] B8z4 | 
[V:2] G8z4 | 
[V:3] d8z4 | 
[V:4] G8z4 | 
[V:5] z4z4G4 | 
[V:6] D8z4 | 
[V:7] z4z4d4 | 
[V:8] z4z4D4 | 
[V:9] z4z4B4 | 
[V:10] z4z4G,,4 | 
[V:11] G,,8z4 | 
[V:12] z4z4G,4 | 
[V:1] z12 | 
[V:2] z12 | 
[V:3] z12 | 
[V:4] z12 | 
[V:5] C8G4 | 
[V:6] z12 | 
[V:7] c4A4B4 | 
[V:8] A8G4 | 
[V:9] c8B4 | 
[V:10] A,,4F,,4G,,4 | 
[V:11] z12 | 
[V:12] E,4F,4D,4 | 
[V:1] z12 | 
[V:2] z12 | 
[V:3] z12 | 
[V:4] z12 | 
[V:5] E4F8 | 
[V:6] z12 | 
[V:7] c4A6G2 | 
[V:8] c6B2A4 | 
[V:9] A4c6B2 | 
[V:10] A,,4F,,8 | 
[V:11] z12 | 
[V:12] C,8C,4 | 
[V:1] z12 | 
[V:2] z12 | 
[V:3] z12 | 
[V:4] z12 | 
[V:5] D6E2F4 | 
[V:6] z12 | 
[V:7] G8^F4 | 
[V:8] d8d4 | 
[V:9] G4A8 | 
[V:10] G,,4D,8 | 
[V:11] z12 | 
[V:12] G,4D,8 | 
[V:1] z4z4G4 | 
[V:2] z4z4d4 | 
[V:3] z4z4B4 | 
[V:4] z4z4d4 | 
[V:5] D4G8 | 
[V:6] z4z4D4 | 
[V:7] G4z4B4 | 
[V:8] d8B4 | 
[V:9] B6G2G4 | 
[V:10] G,,8G,,4 | 
[V:11] z4z4G,,4 | 
[V:12] G,4z4G,4 | 
[V:1] E4F4D4 :
[V:2] c4A4B4 | 
[V:3] A8G4 | 
[V:4] A2B2c4G4 | 
[V:5] z12 | 
[V:6] A8z4 | 
[V:7] c8B4 | 
[V:8] e4A4d4 | 
[V:9] z4A4D4 | 
[V:10] C,8z4 | 
[V:11] A,,4F,,4G,,4 | 
[V:12] C,8G,4 | 
[V:1] A8c4 | 
[V:2] c4A6G2 | 
[V:3] c8z4 | 
[V:4] z4A8 | 
[V:5] z12 | 
[V:6] E4F6E2 | 
[V:7] A4c6B2 | 
[V:8] A8z4 | 
[V:9] z4A8 | 
[V:10] C,6B,,2A,,4 | 
[V:11] A,,4F,,8 | 
[V:12] E,4A,6F,2 | 
[V:1] B4A6BA | 
[V:2] G8^F4 | 
[V:3] d8d4 | 
[V:4] B4d6c2 | 
[V:5] [D8d8][D4d4] | 
[V:6] D4z4D4 | 
[V:7] G4A8 | 
[V:8] d6c2A4 | 
[V:9] D4F8 | 
[V:10] D,8D,4 | 
[V:11] G,,4D,8 | 
[V:12] D,4z4F,4 | 
[V:1] B4z4G4 | 
[V:2] G4z4d4 | 
[V:3] d4z4B4 | 
[V:4] B4z4d4 | 
[V:5] [D12d12] | 
[V:6] G4z4D4 | 
[V:7] G4z4B4 | 
[V:8] z4d4B4 | 
[V:9] =B6G2G4 | 
[V:10] D,4z4G,,4 | 
[V:11] G,,4z4G,,4 | 
[V:12] D,8G,4 | 
[V:1] E4F4D4 :
[V:2] c4A4B4 | 
[V:3] A8G4 | 
[V:4] A2B2c4G4 | 
[V:5] z12 | 
[V:6] A8z4 | 
[V:7] c8B4 | 
[V:8] e4A4d4 | 
[V:9] z4A4D4 | 
[V:10] C,8z4 | 
[V:11] A,,4F,,4G,,4 | 
[V:12] C,8G,4 | 
[V:1] A8c4 | 
[V:2] c4A6G2 | 
[V:3] c8z4 | 
[V:4] z4A8 | 
[V:5] z12 | 
[V:6] E4F6E2 | 
[V:7] A4c6B2 | 
[V:8] A8z4 | 
[V:9] z4A8 | 
[V:10] C,6B,,2A,,4 | 
[V:11] A,,4F,,8 | 
[V:12] E,4A,6F,2 | 
[V:1] B4A6BA | 
[V:2] G8^F4 | 
[V:3] d8d4 | 
[V:4] B4d6c2 | 
[V:5] [D8d8][D4d4] | 
[V:6] D4z4D4 | 
[V:7] G4A8 | 
[V:8] d6c2A4 | 
[V:9] D4F8 | 
[V:10] D,8D,4 | 
[V:11] G,,4D,8 | 
[V:12] D,4D,8- | 
[V:1] B12- | 
[V:2] G12- | 
[V:3] d12- | 
[V:4] B12- | 
[V:5] D12- & d12- | 
[V:6] G12- | 
[V:7] G12- | 
[V:8] z4d6c2 | 
[V:9] =B6A2G4 | 
[V:10] D,12 | 
[V:11] G,,12- | 
[V:12] D,12- | 
[V:1] B12 |]  
[V:2] G12 |]  
[V:3] d12 |]  
[V:4] B12 |]  
[V:5] D12 & d12 |]  
[V:6] G12 |]  
[V:7] G12 |]  
[V:8] B12 |]  
[V:9] d12 |]  
[V:10] G,,12 |]  
[V:11] G,,12 |]  
[V:12] D,12 |]  



